common/resources/fonts/svg/community.svg

<?xml version="1.0" encoding="UTF-8" standalone="no"?>
<svg width="1024px" height="1024px" viewBox="0 0 1024 1024" version="1.1" xmlns="http://www.w3.org/2000/svg" xmlns:xlink="http://www.w3.org/1999/xlink">
    <!-- Generator: Sketch 3.8.3 (29802) - http://www.bohemiancoding.com/sketch -->
    <title>community</title>
    <desc>Created with Sketch.</desc>
    <defs></defs>
    <g id="Page-1" stroke="none" stroke-width="1" fill="none" fill-rule="evenodd">
        <path d="M266.409003,685.421718 C251.623991,707.728275 243.415516,732.393525 243.415516,758.33394 L788.457357,758.33394 C788.457357,732.393525 780.2489,707.728275 765.46391,685.421718 L871.0205,685.421722 L871.0205,627.558526 C861.97869,613.520986 767.564205,581.936523 767.564205,561.31398 C767.564205,542.03327 808.946914,541.82676 808.946914,458.262546 C808.946914,419.68006 764.895052,396.415025 726.181495,396.415025 C692.192191,396.415025 654.160261,414.310332 645.32111,444.739423 L645.32111,444.739423 L645.32111,486.788473 C649.740174,516.93343 661.029389,531.324229 670.418671,540.918374 L698.4553,540.918374 C695.51719,536.913621 692.164957,533.404236 688.999367,530.349045 C678.488024,520.089321 664.10759,506.051781 664.10759,458.262546 C664.10759,433.965283 696.800081,417.037568 726.181495,417.037568 C755.521752,417.037568 788.2554,433.965283 788.2554,458.262546 C788.2554,506.051781 773.83349,520.089321 763.322467,530.349045 C755.997771,537.491656 746.87301,546.388801 746.87301,561.31398 C746.87301,585.218971 774.930376,600.020308 820.658195,622.191194 C830.56909,626.959744 843.211671,633.090874 850.329305,637.281485 L850.329305,664.81967 L749.350929,664.81967 C707.997467,619.347938 637.395685,586.938708 554.867919,579.093267 L554.867919,541.758136 C597.752386,513.655289 632.731171,443.593988 632.731171,373.521515 C632.731171,261.007669 632.731171,169.797178 515.936452,169.797178 C399.141797,169.797178 399.141797,261.007669 399.141797,373.521515 C399.141797,443.593988 434.120519,513.655289 477.004986,541.758136 L477.004986,579.093267 C394.477339,586.938708 323.875515,619.347938 282.522005,664.81967 L182.44877,664.81967 L182.44877,637.281485 C189.566595,633.090874 202.208984,626.959744 212.120103,622.191194 C257.847858,600.020308 285.905257,585.218971 285.905257,561.31398 C285.905257,546.388801 276.780399,537.491656 269.455672,530.349045 C258.944489,520.089321 244.522643,506.051781 244.522643,458.262546 C244.522643,433.965283 277.25629,417.037568 306.596548,417.037568 C335.978153,417.037568 368.67042,433.965283 368.67042,458.262546 C368.67042,506.051781 354.289987,520.089321 343.778804,530.349045 C340.613022,533.404236 337.261044,536.913621 334.32287,540.918374 L362.359595,540.918374 C371.748728,531.324151 383.038081,516.933195 387.457093,486.787737 L387.457093,444.739749 L387.457093,444.739749 C378.618123,414.31046 340.586057,396.415025 306.596548,396.415025 C267.88315,396.415025 223.831352,419.68006 223.831352,458.262546 C223.831352,541.82676 265.213934,542.03327 265.213934,561.31398 C265.213934,581.936523 170.799576,613.520986 161.757479,627.558526 L161.757479,685.421722 L266.409,685.421722 Z M826.007667,211.151743 C995.981562,381.195562 995.981562,656.890791 826.007667,826.934577 C656.03441,996.979226 380.453583,996.979226 210.480358,826.934577 C40.506271,656.890791 40.506271,381.195562 210.480358,211.151743 C380.453583,41.1072863 656.03441,41.1072863 826.007667,211.151743 Z" id="Combined-Shape" fill="#000000"></path>
        <g id="community"></g>
    </g>
</svg>

<svg width="1024" height="1024" viewBox="0 0 1024 1024">
    <path d="M266.409 685.422c-14.785 22.306-22.993 46.972-22.993 72.912h545.041c0-25.94-8.208-50.606-22.993-72.912H871.02v-57.863c-9.041-14.038-103.456-45.622-103.456-66.245 0-19.28 41.383-19.487 41.383-103.051 0-38.583-44.052-61.848-82.766-61.848-33.989 0-72.02 17.895-80.86 48.324v42.05c4.42 30.144 15.708 44.535 25.098 54.13h28.036c-2.938-4.005-6.29-7.515-9.456-10.57-10.511-10.26-24.891-24.297-24.891-72.086 0-24.298 32.692-41.225 62.073-41.225 29.34 0 62.074 16.927 62.074 41.225 0 47.789-14.422 61.826-24.933 72.086-7.324 7.143-16.449 16.04-16.449 30.965 0 23.905 28.057 38.706 73.785 60.877 9.911 4.769 22.554 10.9 29.671 15.09v27.539H749.351c-41.354-45.472-111.955-77.881-194.483-85.727v-37.335c42.884-28.103 77.863-98.164 77.863-168.236 0-112.514 0-203.725-116.795-203.725-116.794 0-116.794 91.21-116.794 203.725 0 70.072 34.979 140.133 77.863 168.236v37.335c-82.528 7.846-153.13 40.255-194.483 85.727H182.449v-27.54c7.118-4.19 19.76-10.321 29.671-15.09 45.728-22.17 73.785-36.972 73.785-60.877 0-14.925-9.125-23.822-16.45-30.965-10.51-10.26-24.932-24.297-24.932-72.086 0-24.298 32.733-41.225 62.074-41.225 29.381 0 62.073 16.927 62.073 41.225 0 47.789-14.38 61.826-24.891 72.086-3.166 3.055-6.518 6.565-9.456 10.57h28.037c9.389-9.595 20.678-23.986 25.097-54.131V444.74c-8.839-30.43-46.87-48.325-80.86-48.325-38.714 0-82.766 23.265-82.766 61.848 0 83.564 41.383 83.77 41.383 103.051 0 20.623-94.414 52.207-103.457 66.245v57.863H266.41zm559.599-474.27c169.974 170.044 169.974 445.739 0 615.783-169.974 170.044-445.554 170.044-615.528 0-169.974-170.044-169.974-445.74 0-615.783 169.974-170.045 445.554-170.045 615.528 0z" fill-rule="evenodd"/>
</svg>
